resources/haticons/SVG/videogame_asset.svg

<!-- Generated by IcoMoon.io -->
<svg version="1.1" xmlns="http://www.w3.org/2000/svg" width="24" height="24" viewBox="0 0 24 24">
<title>videogame_asset</title>
<path d="M19.5 12q0.656 0 1.078-0.422t0.422-1.078-0.422-1.078-1.078-0.422-1.078 0.422-0.422 1.078 0.422 1.078 1.078 0.422zM15.516 15q0.609 0 1.055-0.422t0.445-1.078-0.445-1.078-1.055-0.422-1.055 0.422-0.445 1.078 0.445 1.078 1.055 0.422zM11.016 12.984v-1.969h-3v-3h-2.016v3h-3v1.969h3v3h2.016v-3h3zM21 6q0.797 0 1.406 0.609t0.609 1.406v7.969q0 0.797-0.609 1.406t-1.406 0.609h-18q-0.797 0-1.406-0.609t-0.609-1.406v-7.969q0-0.797 0.609-1.406t1.406-0.609h18z"></path>
</svg>

<svg xmlns="http://www.w3.org/2000/svg" width="24" height="24"><path d="M19.5 12q.656 0 1.078-.422T21 10.5t-.422-1.078T19.5 9t-1.078.422T18 10.5t.422 1.078T19.5 12zm-3.984 3q.609 0 1.055-.422t.445-1.078-.445-1.078T15.516 12t-1.055.422-.445 1.078.445 1.078 1.055.422zm-4.5-2.016v-1.969h-3v-3H6v3H3v1.969h3v3h2.016v-3h3zM21 6q.797 0 1.406.609t.609 1.406v7.969q0 .797-.609 1.406T21 17.999H3q-.797 0-1.406-.609t-.609-1.406V8.015q0-.797.609-1.406T3 6h18z"/></svg>
